X: 257
T: Fang fencheng
L: 1/8
M: 2/4
K: Bb
G BB2 [I:setbarnb 1]| 
B G F G | 
B DF2- | 
F2d d | 
c GB2 | 
B cf2 | 
A BA2 | 
d2b3/ d/ | 
d d c d | 
c d/ c/B2- | 
B cf2 | 
G B c3/ d/ | 
c G B3/ G/ | 
F4 | 
B> G F G | 
D FD2 | 
c2c2 | 
d2d c | 
d d/ c/ B d | 
c4 | 
d c d f | 
f G B c | 
f d/ f/ G F | 
D4 | 
G BB2 | 
G B G F | 
d d/ c/ G d/ d/ | 
c4 | 
d> c d f | 
f G B c | 
d f/ f/ G f | 
D4 | 
F F F C | 
D4 | 
d> f d c | 
f2A c | 
f dc2 | 
A2A A | 
G2G D | 
F4 | 
c d f3/ G/ | 
B4 | 
f2f G | 
B4 | 
B> c d d | 
c2f A | 
G A G D | 
F4 |]

@@@ Tune index: 9131
